public/formular-icons/greece/upper-theta.svg

<svg style="vertical-align:-.05ex" xmlns="http://www.w3.org/2000/svg" width="1.76ex" height="1.645ex" viewBox="0 -705 778 727" xmlns:xlink="http://www.w3.org/1999/xlink"><defs><path id="a" d="M56 340q0 83 30 154t78 116 106 70 118 25q133 0 233-104t101-260q0-81-29-150T617 75 510 4 388-22 267 3 160 74 85 189 56 340Zm554-1q0 89-20 156t-55 103-72 53-79 17q-52 0-95-30t-68-72q-53-81-53-227 0-65 8-104 13-77 52-130t96-77q32-12 64-12 27 0 54 8t59 30 54 57 39 94 16 134Zm-387-76v159h40v-34h251v34h40V263h-40v34H263v-34h-40Z"/></defs><g stroke="currentColor" fill="currentColor" stroke-width="0"><use data-c="398" xlink:href="#a" transform="scale(1 -1)"/></g></svg>

<svg style="vertical-align: -0.05ex" xmlns="http://www.w3.org/2000/svg" width="1.76ex" height="1.645ex" role="img" focusable="false" viewBox="0 -705 778 727" xmlns:xlink="http://www.w3.org/1999/xlink"><defs><path id="MJX-101-TEX-N-398" d="M56 340Q56 423 86 494T164 610T270 680T388 705Q521 705 621 601T722 341Q722 260 693 191T617 75T510 4T388 -22T267 3T160 74T85 189T56 340ZM610 339Q610 428 590 495T535 598T463 651T384 668Q332 668 289 638T221 566Q168 485 168 339Q168 274 176 235Q189 158 228 105T324 28Q356 16 388 16Q415 16 442 24T501 54T555 111T594 205T610 339ZM223 263V422H263V388H514V422H554V263H514V297H263V263H223Z"></path></defs><g stroke="currentColor" fill="currentColor" stroke-width="0" transform="scale(1,-1)"><g data-mml-node="math"><g data-mml-node="mi"><use data-c="398" xlink:href="#MJX-101-TEX-N-398"></use></g></g></g></svg>
